;FLAVOR:Marlin
;TIME:11775
;Filament used: 12.4984m
;Layer height: 0.15
;MINX:22.204
;MINY:47.204
;MINZ:0.3
;MAXX:177.796
;MAXY:152.796
;MAXZ:25.5
;TARGET_MACHINE.NAME:Prusa i3
;Generated with Cura_SteamEngine 5.7.1
M140 S60
M105
M190 S60
M104 S200
M105
M109 S200
M82 ;absolute extrusion mode
G21 ;metric values
G90 ;absolute positioning
M82 ;set extruder to absolute mode
M107 ;start with the fan off
G28 X0 Y0 ;move X/Y to min endstops
G28 Z0 ;move Z to min endstops
G29 Z0 ; Auto Level
G1 Z15.0 F9000 ;move the platform down 15mm
G92 E0 ;zero the extruded length
G1 F200 E3 ;extrude 3mm of feed stock
G92 E0 ;zero the extruded length again
G1 F9000
;Put printing message on LCD screen
M117 Printing...
G92 E0
G92 E0
G1 F1500 E-6.5
;LAYER_COUNT:169
;LAYER:0
M107
G0 F3600 X27.563 Y48.626 Z0.3
;TYPE:SKIRT
G1 F1500 E0
G1 F2400 X29.662 Y47.693 E0.1146
G1 X31.929 Y47.204 E0.2303
G1 X168.257 Y47.282 E7.03173
G1 X169.525 Y47.509 E7.096
G1 X171.337 Y48.045 E7.19027
G1 X173.364 Y49.212 E7.30696
G1 X175.086 Y50.777 E7.42305
G1 X176.374 Y52.563 E7.53291
G1 X177.307 Y54.662 E7.64751
G1 X177.796 Y56.929 E7.76321
G1 X177.782 Y143.065 E12.06055
G1 X177.371 Y144.972 E12.15788
G1 X176.912 Y146.399 E12.23267
G1 X175.772 Y148.38 E12.34669
G1 X174.23 Y150.079 E12.46116
G1 X172.41 Y151.391 E12.5731
G1 X170.337 Y152.307 E12.68617
G1 X168.096 Y152.796 E12.8006
G1 X31.916 Y152.777 E19.59465
G1 X30.3 Y152.441 E19.677
G1 X28.558 Y151.892 E19.76812
G1 X26.553 Y150.716 E19.88408
G1 X24.928 Y149.227 E19.99404
G1 X23.632 Y147.432 E20.1045
G1 X22.691 Y145.329 E20.21944
G1 X22.204 Y143.075 E20.33449
G1 X22.264 Y57.023 E24.62764
G1 X22.612 Y55.106 E24.72485
G1 X23.121 Y53.535 E24.80723
G1 X24.252 Y51.593 E24.91935
G1 X25.777 Y49.914 E25.03251
G1 X27.563 Y48.626 E25.14237
G0 F3600 X27.761 Y48.976
G1 F2400 X29.788 Y48.075 E25.25304
G1 X31.971 Y47.604 E25.36446
G1 X168.257 Y47.682 E32.16379
G1 X169.412 Y47.893 E32.22237
G1 X171.177 Y48.415 E32.3142
G1 X173.129 Y49.539 E32.42657
G1 X174.787 Y51.046 E32.53835
G1 X176.024 Y52.761 E32.64385
G1 X176.925 Y54.788 E32.75452
G1 X177.396 Y56.971 E32.86594
G1 X177.382 Y143.023 E37.15909
G1 X176.99 Y144.85 E37.25231
G1 X176.545 Y146.234 E37.32484
G1 X175.445 Y148.145 E37.43485
G1 X173.961 Y149.78 E37.54501
G1 X172.212 Y151.041 E37.65258
G1 X170.212 Y151.925 E37.76167
G1 X168.052 Y152.396 E37.87197
G1 X31.959 Y152.377 E44.66167
G1 X30.42 Y152.059 E44.74008
G1 X28.721 Y151.524 E44.82894
G1 X26.791 Y150.391 E44.9406
G1 X25.227 Y148.959 E45.04639
G1 X23.98 Y147.232 E45.15267
G1 X23.074 Y145.206 E45.26339
G1 X22.604 Y143.032 E45.37436
G1 X22.664 Y57.023 E49.66536
G1 X22.993 Y55.229 E49.75636
G1 X23.489 Y53.698 E49.83665
G1 X24.577 Y51.83 E49.9445
G1 X26.046 Y50.213 E50.05349
G1 X27.761 Y48.976 E50.15899
G0 F3600 X27.961 Y49.325
G1 F2400 X29.912 Y48.457 E50.26552
G1 X32.013 Y48.004 E50.37275
G1 X168.186 Y48.076 E57.16645
G1 X169.298 Y48.277 E57.22283
G1 X171.018 Y48.786 E57.31232
G1 X172.894 Y49.866 E57.42031
G1 X174.488 Y51.315 E57.52778
G1 X175.675 Y52.961 E57.62903
G1 X176.543 Y54.912 E57.73556
G1 X176.996 Y57.013 E57.84279
G1 X176.982 Y142.981 E62.13175
G1 X176.609 Y144.728 E62.22088
G1 X176.177 Y146.071 E62.29126
G1 X175.12 Y147.908 E62.397
G1 X173.692 Y149.481 E62.50299
G1 X172.014 Y150.691 E62.6062
G1 X170.087 Y151.543 E62.71131
G1 X168.008 Y151.996 E62.81747
G1 X32.001 Y151.977 E69.60289
G1 X30.501 Y151.667 E69.6793
G1 X28.888 Y151.158 E69.76369
G1 X27.029 Y150.066 E69.87125
G1 X25.526 Y148.691 E69.97288
G1 X24.328 Y147.032 E70.07497
G1 X23.456 Y145.082 E70.18154
G1 X23.004 Y142.99 E70.28832
G1 X23.058 Y57.094 E74.57369
G1 X23.374 Y55.352 E74.66202
G1 X23.857 Y53.861 E74.74021
G1 X24.902 Y52.067 E74.84379
G1 X26.315 Y50.512 E74.94861
G1 X27.961 Y49.325 E75.04986
G0 F3600 X28.161 Y49.674
G1 F2400 X30.036 Y48.839 E75.15226
G1 X32.055 Y48.404 E75.2553
G1 X168.116 Y48.47 E82.04341
G1 X169.185 Y48.661 E82.09759
G1 X170.858 Y49.156 E82.18463
G1 X172.659 Y50.193 E82.28831
G1 X174.189 Y51.584 E82.39148
G1 X175.326 Y53.161 E82.48847
G1 X176.161 Y55.036 E82.59087
G1 X176.596 Y57.055 E82.69391
G1 X176.582 Y142.94 E86.97873
G1 X176.228 Y144.606 E87.0637
G1 X175.81 Y145.906 E87.13183
G1 X174.793 Y147.673 E87.23355
G1 X173.423 Y149.182 E87.33523
G1 X171.816 Y150.341 E87.43408
G1 X169.962 Y151.161 E87.53522
G1 X167.964 Y151.596 E87.63723
G1 X32.043 Y151.577 E94.41836
G1 X30.582 Y151.275 E94.49279
G1 X29.052 Y150.79 E94.57287
G1 X27.268 Y149.743 E94.67607
G1 X25.825 Y148.423 E94.77364
G1 X24.676 Y146.832 E94.87155
G1 X23.839 Y144.959 E94.9739
G1 X23.404 Y142.947 E95.07659
G1 X23.458 Y57.094 E99.35982
G1 X23.755 Y55.475 E99.44194
G1 X24.225 Y54.024 E99.51803
G1 X25.227 Y52.304 E99.61734
G1 X26.584 Y50.811 E99.718
G1 X28.161 Y49.674 E99.81499
G0 F3600 X28.361 Y50.023
G1 F2400 X30.16 Y49.221 E99.91326
G1 X32.097 Y48.804 E100.01211
G1 X168.116 Y48.87 E106.79813
G1 X169.072 Y49.045 E106.84662
G1 X170.698 Y49.526 E106.93121
G1 X172.424 Y50.52 E107.03058
G1 X173.89 Y51.853 E107.12943
G1 X174.977 Y53.361 E107.22218
G1 X175.779 Y55.16 E107.32044
G1 X176.196 Y57.097 E107.4193
G1 X176.182 Y142.899 E111.69998
G1 X175.847 Y144.484 E111.7808
G1 X175.442 Y145.743 E111.84678
G1 X174.468 Y147.436 E111.94422
G1 X173.154 Y148.883 E112.04174
G1 X171.618 Y149.991 E112.13623
G1 X169.837 Y150.779 E112.23339
G1 X167.92 Y151.196 E112.33127
G1 X32.085 Y151.177 E119.1081
G1 X30.663 Y150.883 E119.18055
G1 X29.216 Y150.423 E119.2563
G1 X27.507 Y149.42 E119.35516
G1 X26.124 Y148.155 E119.44867
G1 X25.024 Y146.632 E119.5424
G1 X24.221 Y144.835 E119.64059
G1 X23.804 Y142.905 E119.7391
G1 X23.852 Y57.165 E124.01669
G1 X24.136 Y55.598 E124.09614
G1 X24.593 Y54.187 E124.17014
G1 X25.552 Y52.541 E124.26518
G1 X26.853 Y51.11 E124.36166
G1 X28.361 Y50.023 E124.45441
G0 F3600 X28.565 Y50.37
G1 F2400 X30.284 Y49.603 E124.54832
G1 X32.139 Y49.204 E124.64298
G1 X168.045 Y49.264 E131.42336
G1 X168.959 Y49.429 E131.4697
G1 X170.538 Y49.896 E131.55185
G1 X172.189 Y50.847 E131.6469
G1 X173.588 Y52.119 E131.74124
G1 X174.63 Y53.565 E131.83016
G1 X175.397 Y55.284 E131.92407
G1 X175.796 Y57.139 E132.01873
G1 X175.782 Y142.86 E136.29537
G1 X175.466 Y144.362 E136.37194
G1 X175.075 Y145.578 E136.43567
G1 X174.141 Y147.201 E136.52909
G1 X172.885 Y148.584 E136.6223
G1 X171.42 Y149.641 E136.71242
G1 X169.712 Y150.397 E136.80561
G1 X167.876 Y150.796 E136.89935
G1 X32.127 Y150.777 E143.67189
G1 X30.744 Y150.491 E143.74235
G1 X29.381 Y150.056 E143.81373
G1 X27.744 Y149.095 E143.90843
G1 X26.423 Y147.887 E143.99774
G1 X25.372 Y146.432 E144.08729
G1 X24.603 Y144.711 E144.18133
G1 X24.204 Y142.863 E144.27565
G1 X24.252 Y57.165 E148.55114
G1 X24.517 Y55.721 E148.62439
G1 X24.961 Y54.35 E148.69628
G1 X25.877 Y52.778 E148.78705
G1 X27.119 Y51.412 E148.87916
G1 X28.565 Y50.37 E148.96808
G0 F3600 X28.769 Y50.717
G1 F2400 X30.408 Y49.985 E149.05764
G1 X32.181 Y49.604 E149.14811
G1 X167.975 Y49.658 E155.9229
G1 X168.845 Y49.813 E155.96699
G1 X170.379 Y50.267 E156.0468
G1 X171.954 Y51.174 E156.13748
G1 X173.286 Y52.385 E156.22729
G1 X174.283 Y53.769 E156.31239
G1 X175.015 Y55.408 E156.40195
G1 X175.396 Y57.181 E156.49242
G1 X175.382 Y142.816 E160.76477
G1 X175.085 Y144.239 E160.83729
G1 X174.706 Y145.417 E160.89903
G1 X173.816 Y146.964 E160.98807
G1 X172.616 Y148.285 E161.07711
G1 X171.222 Y149.291 E161.16287
G1 X169.587 Y150.015 E161.25208
G1 X167.832 Y150.396 E161.34168
G1 X32.169 Y150.377 E168.10993
G1 X30.825 Y150.099 E168.17841
G1 X29.546 Y149.689 E168.24541
G1 X27.981 Y148.77 E168.33596
G1 X26.722 Y147.619 E168.42106
G1 X25.72 Y146.232 E168.50643
G1 X24.985 Y144.587 E168.59632
G1 X24.604 Y142.821 E168.68645
G1 X24.646 Y57.236 E172.9563
G1 X24.898 Y55.844 E173.02688
G1 X25.329 Y54.513 E173.09668
G1 X26.202 Y53.015 E173.18318
G1 X27.385 Y51.714 E173.27091
G1 X28.769 Y50.717 E173.35601
G0 F3600 X28.969 Y51.065
G1 F2400 X30.532 Y50.367 E173.44141
G1 X32.223 Y50.004 E173.52769
G1 X167.906 Y50.052 E180.29695
G1 X168.732 Y50.197 E180.33879
G1 X170.219 Y50.637 E180.41615
G1 X171.719 Y51.501 E180.50251
G1 X172.987 Y52.654 E180.58802
G1 X173.935 Y53.969 E180.66889
G1 X174.633 Y55.532 E180.7543
G1 X174.996 Y57.223 E180.84058
G1 X174.982 Y142.773 E185.10869
G1 X174.704 Y144.117 E185.17716
G1 X174.339 Y145.252 E185.23664
G1 X173.489 Y146.729 E185.32166
G1 X172.347 Y147.986 E185.40639
G1 X171.024 Y148.941 E185.48779
G1 X169.462 Y149.633 E185.57303
G1 X167.788 Y149.996 E185.65848
G1 X32.21 Y149.977 E192.4225
G1 X30.947 Y149.718 E192.48682
G1 X29.709 Y149.321 E192.55168
G1 X28.22 Y148.447 E192.63782
G1 X27.021 Y147.351 E192.71887
G1 X26.068 Y146.032 E192.80005
G1 X25.367 Y144.463 E192.88578
G1 X25.004 Y142.779 E192.97173
G1 X25.04 Y57.307 E197.23595
G1 X25.292 Y55.915 E197.30652
G1 X25.695 Y54.679 E197.37138
G1 X26.527 Y53.252 E197.45379
G1 X27.654 Y52.013 E197.53735
G1 X28.969 Y51.065 E197.61823
G0 F3600 X29.173 Y51.412
G1 F2400 X30.656 Y50.749 E197.69927
G1 X32.265 Y50.404 E197.78137
G1 X167.838 Y50.446 E204.54513
G1 X168.619 Y50.581 E204.58468
G1 X170.059 Y51.007 E204.6596
G1 X171.484 Y51.828 E204.74165
G1 X172.685 Y52.92 E204.82263
G1 X173.588 Y54.173 E204.89968
G1 X174.251 Y55.656 E204.98073
G1 X174.596 Y57.265 E205.06283
G1 X174.582 Y142.732 E209.32679
G1 X174.323 Y143.994 E209.39106
G1 X173.97 Y145.091 E209.44856
G1 X173.164 Y146.492 E209.5292
G1 X172.078 Y147.687 E209.60976
G1 X170.826 Y148.591 E209.6868
G1 X169.337 Y149.251 E209.76806
G1 X167.745 Y149.596 E209.84933
G1 X32.251 Y149.577 E216.60915
G1 X31.069 Y149.337 E216.66932
G1 X29.872 Y148.953 E216.73204
G1 X28.459 Y148.124 E216.81377
G1 X27.32 Y147.083 E216.89075
G1 X26.416 Y145.832 E216.96776
G1 X25.749 Y144.339 E217.04934
G1 X25.404 Y142.737 E217.13109
G1 X25.434 Y57.378 E221.38967
G1 X25.686 Y55.986 E221.46025
G1 X26.062 Y54.844 E221.52023
G1 X26.852 Y53.489 E221.59848
G1 X27.92 Y52.315 E221.67766
G1 X29.173 Y51.412 E221.75472
G0 F3600 X29.373 Y51.76
G1 F2400 X30.78 Y51.131 E221.83161
G1 X32.307 Y50.804 E221.90952
G1 X167.771 Y50.84 E228.66784
G1 X168.506 Y50.965 E228.70504
G1 X169.899 Y51.377 E228.77751
G1 X171.249 Y52.155 E228.85525
G1 X172.386 Y53.189 E228.93192
G1 X173.24 Y54.373 E229.00476
G1 X173.869 Y55.78 E229.08165
G1 X174.196 Y57.307 E229.15956
G1 X174.182 Y142.691 E233.41938
G1 X173.942 Y143.872 E233.47951
G1 X173.603 Y144.926 E233.53474
G1 X172.837 Y146.257 E233.61136
G1 X171.809 Y147.388 E233.68761
G1 X170.628 Y148.241 E233.76029
G1 X169.212 Y148.869 E233.83757
G1 X167.702 Y149.196 E233.91465
G1 X32.291 Y149.177 E240.67033
G1 X31.191 Y148.956 E240.72631
G1 X30.035 Y148.585 E240.78688
G1 X28.698 Y147.801 E240.86421
G1 X27.619 Y146.815 E240.93713
G1 X26.764 Y145.632 E241.00995
G1 X26.131 Y144.215 E241.08738
G1 X25.804 Y142.695 E241.16495
G1 X25.828 Y57.448 E245.41794
G1 X26.066 Y56.111 E245.48569
G1 X26.429 Y55.008 E245.54362
G1 X27.176 Y53.728 E245.61756
G1 X28.189 Y52.614 E245.69268
G1 X29.373 Y51.76 E245.76551
G0 F3600 X29.573 Y52.108
G1 F2400 X30.904 Y51.513 E245.83825
G1 X32.349 Y51.204 E245.91197
G1 X167.706 Y51.235 E252.66496
G1 X168.393 Y51.349 E252.6997
G1 X169.739 Y51.747 E252.76973
G1 X171.014 Y52.482 E252.84315
G1 X172.087 Y53.458 E252.91551
G1 X172.892 Y54.573 E252.98412
G1 X173.487 Y55.904 E253.05686
G1 X173.796 Y57.349 E253.13058
G1 X173.782 Y142.651 E257.38632
G1 X173.561 Y143.749 E257.4422
G1 X173.234 Y144.765 E257.49544
G1 X172.512 Y146.02 E257.56768
G1 X171.54 Y147.089 E257.63976
G1 X170.43 Y147.891 E257.70808
G1 X169.087 Y148.487 E257.78139
G1 X167.659 Y148.796 E257.85428
G1 X32.329 Y148.777 E264.60592
G1 X31.313 Y148.575 E264.6576
G1 X30.198 Y148.217 E264.71602
G1 X28.937 Y147.478 E264.78894
G1 X27.918 Y146.547 E264.85781
G1 X27.112 Y145.432 E264.92644
G1 X26.513 Y144.091 E264.99972
G1 X26.204 Y142.653 E265.0731
G1 X26.222 Y57.517 E269.32055
G1 X26.446 Y56.236 E269.38543
G1 X26.795 Y55.176 E269.44111
G1 X27.502 Y53.964 E269.51111
G1 X28.458 Y52.913 E269.58199
G1 X29.573 Y52.108 E269.6506
G0 F3600 X29.773 Y52.456
G1 F2400 X31.028 Y51.895 E269.71918
G1 X32.391 Y51.604 E269.78872
G1 X167.642 Y51.63 E276.53642
G1 X168.279 Y51.733 E276.56861
G1 X169.58 Y52.118 E276.6363
G1 X170.779 Y52.809 E276.70534
G1 X171.788 Y53.727 E276.7734
G1 X172.544 Y54.773 E276.83778
G1 X173.105 Y56.028 E276.90637
G1 X173.396 Y57.391 E276.9759
G1 X173.382 Y142.613 E281.22764
G1 X173.18 Y143.627 E281.27923
G1 X172.867 Y144.6 E281.33022
G1 X172.185 Y145.785 E281.39843
G1 X171.271 Y146.79 E281.4662
G1 X170.232 Y147.541 E281.53016
G1 X168.962 Y148.105 E281.59949
G1 X167.616 Y148.396 E281.6682
G1 X32.366 Y148.377 E288.41585
G1 X31.435 Y148.194 E288.46318
G1 X30.361 Y147.849 E288.51946
G1 X29.176 Y147.155 E288.58797
G1 X28.217 Y146.279 E288.65277
G1 X27.46 Y145.232 E288.71723
G1 X26.895 Y143.967 E288.78635
G1 X26.604 Y142.611 E288.85554
G1 X26.616 Y57.585 E293.09751
G1 X26.826 Y56.361 E293.15947
G1 X27.162 Y55.342 E293.213
G1 X27.827 Y54.201 E293.27888
G1 X28.727 Y53.212 E293.3456
G1 X29.773 Y52.456 E293.40999
G0 F3600 X29.973 Y52.804
G1 F2400 X31.153 Y52.277 E293.47446
G1 X32.432 Y52.004 E293.53971
G1 X167.58 Y52.025 E300.28227
G1 X168.165 Y52.117 E300.31181
G1 X169.421 Y52.489 E300.37717
G1 X170.544 Y53.136 E300.44183
G1 X171.489 Y53.996 E300.50557
G1 X172.196 Y54.973 E300.56574
G1 X172.723 Y56.153 E300.63021
G1 X172.996 Y57.432 E300.69546
G1 X172.982 Y142.571 E304.94306
G1 X172.799 Y143.504 E304.9905
G1 X172.498 Y144.439 E305.0395
G1 X171.86 Y145.548 E305.10333
G1 X171.002 Y146.491 E305.16694
G1 X170.032 Y147.192 E305.22665
G1 X168.838 Y147.723 E305.29184
G1 X167.574 Y147.996 E305.35636
G1 X32.406 Y147.977 E312.09991
G1 X31.557 Y147.813 E312.14305
G1 X30.524 Y147.481 E312.19719
G1 X29.415 Y146.832 E312.26129
G1 X28.516 Y146.011 E312.32203
G1 X27.808 Y145.032 E312.38231
G1 X27.277 Y143.843 E312.44728
G1 X27.004 Y142.569 E312.51228
G1 X27.011 Y57.651 E316.74886
G1 X27.206 Y56.486 E316.80779
G1 X27.529 Y55.508 E316.85917
G1 X28.152 Y54.438 E316.92094
G1 X28.996 Y53.511 E316.98349
G1 X29.973 Y52.804 E317.04365
G0 F3600 X30.176 Y53.151
G1 F2400 X31.278 Y52.659 E317.10386
G1 X32.473 Y52.404 E317.16483
G1 X167.52 Y52.421 E323.90235
G1 X168.051 Y52.501 E323.92914
G1 X169.262 Y52.86 E323.99215
G1 X170.309 Y53.463 E324.05243
G1 X171.188 Y54.263 E324.11173
G1 X171.849 Y55.176 E324.16796
G1 X172.341 Y56.278 E324.22817
G1 X172.596 Y57.473 E324.28913
G1 X172.582 Y142.531 E328.5327
G1 X172.418 Y143.381 E328.57588
G1 X172.129 Y144.278 E328.6229
G1 X171.535 Y145.311 E328.68235
G1 X170.733 Y146.192 E328.74179
G1 X169.832 Y146.843 E328.79725
G1 X168.715 Y147.34 E328.85824
G1 X167.531 Y147.596 E328.91867
G1 X32.444 Y147.577 E335.65819
G1 X31.679 Y147.432 E335.69704
G1 X30.687 Y147.113 E335.74903
G1 X29.657 Y146.51 E335.80857
G1 X28.813 Y145.74 E335.86557
G1 X28.156 Y144.832 E335.92148
G1 X27.659 Y143.719 E335.9823
G1 X27.404 Y142.527 E336.04311
G1 X27.406 Y57.717 E340.2743
G1 X27.601 Y56.552 E340.33323
G1 X27.895 Y55.675 E340.37938
G1 X28.477 Y54.675 E340.4371
G1 X29.263 Y53.812 E340.49534
G1 X30.176 Y53.151 E340.55157
G0 F3600 X30.379 Y53.498
G1 F2400 X31.403 Y53.041 E340.60752
G1 X32.514 Y52.804 E340.66419
G1 X167.46 Y52.817 E347.39667
G1 X167.991 Y52.897 E347.42346
G1 X169.101 Y53.229 E347.48127
G1 X170.074 Y53.79 E347.5373
G1 X170.887 Y54.53 E347.59215
G1 X171.502 Y55.379 E347.64445
G1 X171.959 Y56.403 E347.70039
G1 X172.196 Y57.514 E347.75707
G1 X172.182 Y142.493 E351.99669
G1 X172.037 Y143.258 E352.03553
G1 X171.76 Y144.117 E352.08056
G1 X171.21 Y145.074 E352.13563
G1 X170.464 Y145.893 E352.1909
G1 X169.632 Y146.495 E352.24214
G1 X168.591 Y146.958 E352.29898
G1 X167.489 Y147.196 E352.35522
G1 X32.481 Y147.177 E359.0908
